packages/web/public/icon.svg

<svg xmlns="http://www.w3.org/2000/svg" fill="none" viewBox="0 0 1200 1200"><rect width="856" height="856" x="171.004" y="172" fill="hsl(252 91.5% 95.5%)" rx="200"/><ellipse cx="415.004" cy="435" rx="65" ry="70"/><ellipse cx="785.004" cy="435" rx="65" ry="70"/><path d="M686.403 584.52c0 24.871-39.064 67.202-87.251 67.202-48.188 0-87.251-42.331-87.251-67.202 0-24.872 39.063-45.034 87.251-45.034 48.187 0 87.251 20.162 87.251 45.034Z"/><path fill-rule="evenodd" d="M599.152 622.544c13.808 0 25 11.193 25 25v50.983c0 39.496-28.848 77.781-65.629 99.794-38.249 22.892-90.087 31.623-142.048 6.959-12.473-5.921-17.785-20.832-11.864-33.306 5.921-12.473 20.832-17.785 33.305-11.864 34.733 16.487 68.872 10.903 94.929-4.692 27.524-16.473 41.307-40.848 41.307-56.891v-50.983c0-13.807 11.193-25 25-25Z" clip-rule="evenodd"/><path fill-rule="evenodd" d="M600.424 622.544c-13.807 0-25 11.193-25 25v50.983c0 39.496 28.849 77.781 65.63 99.794 38.248 22.892 90.087 31.623 142.047 6.959 12.474-5.921 17.785-20.832 11.865-33.306-5.921-12.473-20.832-17.785-33.306-11.864-34.732 16.487-68.872 10.903-94.929-4.692-27.524-16.473-41.307-40.848-41.307-56.891v-50.983c0-13.807-11.193-25-25-25ZM73.395 658.479C154.743 610.962 251.966 575 352.29 575c13.808 0 25 11.193 25 25s-11.192 25-25 25c-88.72 0-177.204 31.985-253.677 76.654-11.922 6.964-27.232 2.944-34.196-8.978-6.964-11.922-2.945-27.233 8.978-34.197ZM377.098 666.306c1.658 13.708-8.111 26.163-21.818 27.82-40.174 4.857-87.667 28.339-132.53 61.544-44.505 32.94-83.575 73.336-107.2 108.359-7.721 11.446-23.26 14.466-34.706 6.745-11.447-7.722-14.466-23.26-6.745-34.707 27.292-40.458 70.591-84.827 118.905-120.586 47.956-35.494 103.731-64.641 156.275-70.994 13.707-1.657 26.162 8.112 27.819 21.819ZM397.415 719.764c5.448 12.687-.42 27.388-13.107 32.836-26.07 11.196-50.832 35.956-70.104 68.358-19.132 32.168-31.265 69.267-33.919 101.639-1.128 13.761-13.198 24.002-26.959 22.874-13.761-1.128-24.002-13.198-22.874-26.959 3.337-40.713 18.162-85.086 40.779-123.113 22.478-37.794 54.258-71.955 93.347-88.741 12.687-5.449 27.388.419 32.837 13.106ZM1127.5 658.479C1046.15 610.962 948.924 575 848.6 575c-13.807 0-25 11.193-25 25s11.193 25 25 25c88.721 0 177.2 31.985 253.68 76.654 11.92 6.964 27.23 2.944 34.19-8.978 6.97-11.922 2.95-27.233-8.97-34.197ZM823.788 666.306c-1.657 13.708 8.112 26.163 21.819 27.82 40.174 4.857 87.666 28.339 132.53 61.544 44.503 32.94 83.573 73.336 107.203 108.359 7.72 11.446 23.26 14.466 34.7 6.745 11.45-7.722 14.47-23.26 6.75-34.707-27.29-40.458-70.59-84.827-118.91-120.586-47.953-35.494-103.729-64.641-156.272-70.994-13.707-1.657-26.163 8.112-27.82 21.819ZM803.472 719.764c-5.448 12.687.42 27.388 13.107 32.836 26.069 11.196 50.832 35.956 70.103 68.358 19.133 32.168 31.266 69.267 33.919 101.639 1.128 13.761 13.198 24.002 26.959 22.874 13.761-1.128 24.002-13.198 22.874-26.959-3.337-40.713-18.161-85.086-40.778-123.113-22.478-37.794-54.258-71.955-93.348-88.741-12.686-5.449-27.388.419-32.836 13.106Z" clip-rule="evenodd"/><circle cx="20" cy="20" r="20" transform="scale(1 -1) rotate(-20 -1715.27 -1689.434)"/><circle cx="20" cy="20" r="20" transform="scale(1 -1) rotate(-20 -1645.045 -1532.297)"/><circle cx="700.84" cy="676.588" r="20" transform="rotate(160 700.84 676.588)"/><circle cx="750.346" cy="643.094" r="20" transform="rotate(160 750.346 643.094)"/><style>circle,ellipse,path{fill:hsl(251 48.1% 53.5%)}@media (prefers-color-scheme:dark){circle,ellipse,path{fill:hsl(255 100% 80%)}rect{fill:hsl(253 34.6% 22.1%)}}</style></svg>

<svg viewBox="0 0 1200 1200" fill="none" xmlns="http://www.w3.org/2000/svg">
<rect x="171.004" y="172" width="856" height="856" rx="200" />
<ellipse cx="415.004" cy="435" rx="65" ry="70" />
<ellipse cx="785.004" cy="435" rx="65" ry="70" />
<path d="M686.403 584.52C686.403 609.391 647.339 651.722 599.152 651.722C550.964 651.722 511.901 609.391 511.901 584.52C511.901 559.648 550.964 539.486 599.152 539.486C647.339 539.486 686.403 559.648 686.403 584.52Z" />
<path fill-rule="evenodd" clip-rule="evenodd" d="M599.152 622.544C612.96 622.544 624.152 633.737 624.152 647.544V698.527C624.152 738.023 595.304 776.308 558.523 798.321C520.274 821.213 468.436 829.944 416.475 805.28C404.002 799.359 398.69 784.448 404.611 771.974C410.532 759.501 425.443 754.189 437.916 760.11C472.649 776.597 506.788 771.013 532.845 755.418C560.369 738.945 574.152 714.57 574.152 698.527V647.544C574.152 633.737 585.345 622.544 599.152 622.544Z" />
<path fill-rule="evenodd" clip-rule="evenodd" d="M600.424 622.544C586.617 622.544 575.424 633.737 575.424 647.544V698.527C575.424 738.023 604.273 776.308 641.054 798.321C679.302 821.213 731.141 829.944 783.101 805.28C795.575 799.359 800.886 784.448 794.966 771.974C789.045 759.501 774.134 754.189 761.66 760.11C726.928 776.597 692.788 771.013 666.731 755.418C639.207 738.945 625.424 714.57 625.424 698.527V647.544C625.424 633.737 614.231 622.544 600.424 622.544Z" />
<path fill-rule="evenodd" clip-rule="evenodd" d="M73.3947 658.479C154.743 610.962 251.966 575 352.29 575C366.098 575 377.29 586.193 377.29 600C377.29 613.807 366.098 625 352.29 625C263.57 625 175.086 656.985 98.6134 701.654C86.6912 708.618 71.3809 704.598 64.4169 692.676C57.453 680.754 61.4724 665.443 73.3947 658.479Z" />
<path fill-rule="evenodd" clip-rule="evenodd" d="M377.098 666.306C378.756 680.014 368.987 692.469 355.28 694.126C315.106 698.983 267.613 722.465 222.75 755.67C178.245 788.61 139.175 829.006 115.55 864.029C107.829 875.475 92.2901 878.495 80.8438 870.774C69.3975 863.052 66.3779 847.514 74.0992 836.067C101.391 795.609 144.69 751.24 193.004 715.481C240.96 679.987 296.735 650.84 349.279 644.487C362.986 642.83 375.441 652.599 377.098 666.306Z" />
<path fill-rule="evenodd" clip-rule="evenodd" d="M397.415 719.764C402.863 732.451 396.995 747.152 384.308 752.6C358.238 763.796 333.476 788.556 314.204 820.958C295.072 853.126 282.939 890.225 280.285 922.597C279.157 936.358 267.087 946.599 253.326 945.471C239.565 944.343 229.324 932.273 230.452 918.512C233.789 877.799 248.614 833.426 271.231 795.399C293.709 757.605 325.489 723.444 364.578 706.658C377.265 701.209 391.966 707.077 397.415 719.764Z" />
<path fill-rule="evenodd" clip-rule="evenodd" d="M1127.5 658.479C1046.15 610.962 948.924 575 848.6 575C834.793 575 823.6 586.193 823.6 600C823.6 613.807 834.793 625 848.6 625C937.321 625 1025.8 656.985 1102.28 701.654C1114.2 708.618 1129.51 704.598 1136.47 692.676C1143.44 680.754 1139.42 665.443 1127.5 658.479Z" />
<path fill-rule="evenodd" clip-rule="evenodd" d="M823.788 666.306C822.131 680.014 831.9 692.469 845.607 694.126C885.781 698.983 933.273 722.465 978.137 755.67C1022.64 788.61 1061.71 829.006 1085.34 864.029C1093.06 875.475 1108.6 878.495 1120.04 870.774C1131.49 863.052 1134.51 847.514 1126.79 836.067C1099.5 795.609 1056.2 751.24 1007.88 715.481C959.927 679.987 904.151 650.84 851.608 644.487C837.901 642.83 825.445 652.599 823.788 666.306Z" />
<path fill-rule="evenodd" clip-rule="evenodd" d="M803.472 719.764C798.024 732.451 803.892 747.152 816.579 752.6C842.648 763.796 867.411 788.556 886.682 820.958C905.815 853.126 917.948 890.225 920.601 922.597C921.729 936.358 933.799 946.599 947.56 945.471C961.321 944.343 971.562 932.273 970.434 918.512C967.097 877.799 952.273 833.426 929.656 795.399C907.178 757.605 875.398 723.444 836.308 706.658C823.622 701.209 808.92 707.077 803.472 719.764Z" />
<circle cx="20" cy="20" r="20" transform="matrix(0.939693 0.34202 0.34202 -0.939693 474.377 688.542)" />
<circle cx="20" cy="20" r="20" transform="matrix(0.939693 0.34202 0.34202 -0.939693 424.868 655.047)" />
<circle cx="700.84" cy="676.588" r="20" transform="rotate(160 700.84 676.588)" />
<circle cx="750.346" cy="643.094" r="20" transform="rotate(160 750.346 643.094)" />
<style>
    circle, ellipse, path {
      fill: hsl(251 48.1% 53.5%); /* --accent10 */
    }
    rect {
      fill: hsl(252 91.5% 95.5%); /* --accent4 */
    }
    @media (prefers-color-scheme: dark){
      circle, ellipse, path {
        fill: hsl(255 100% 80%); /* --accent11 */
      }
      rect {
        fill: hsl(253 34.6% 22.1%); /* --accent4 */
      }
    }
  </style>
</svg>
